src/icons/svg/example.svg

<?xml version="1.0" encoding="UTF-8" standalone="no"?>
<svg width="128px" height="128px" viewBox="0 0 128 128" version="1.1" xmlns="http://www.w3.org/2000/svg" xmlns:xlink="http://www.w3.org/1999/xlink">
    <!-- Generator: Sketch 40 (33762) - http://www.bohemiancoding.com/sketch -->
    <title>example</title>
    <desc>Created with Sketch.</desc>
    <defs></defs>
    <g id="Page-1" stroke="none" stroke-width="1" fill="none" fill-rule="evenodd">
        <g id="example" fill="#000000">
            <g id="Group">
                <path d="M96.2580039,57.4622309 L127.679374,57.4622309 C124.793738,27.3233659 100.426145,2.95577299 70.2872798,0.0701369863 L70.2872798,31.4915068 C83.432955,34.0565166 93.6929941,44.3165558 96.2580039,57.4622309 L96.2580039,57.4622309 L96.2580039,57.4622309 Z" id="Shape"></path>
                <path d="M57.4622309,31.4915068 L57.4622309,0.0701369863 C27.3233659,2.95577299 2.95577299,27.3233659 0.0701369863,57.4622309 L31.4915068,57.4622309 C34.0565166,44.3165558 44.3165558,34.0565166 57.4622309,31.4915068 L57.4622309,31.4915068 L57.4622309,31.4915068 Z" id="Shape"></path>
                <path d="M70.2872798,96.2580039 L70.2872798,127.679374 C100.746771,124.793738 124.793738,100.426145 128,69.9666536 L96.5786301,69.9666536 C93.6929941,83.432955 83.432955,93.6929941 70.2872798,96.2580039 L70.2872798,96.2580039 L70.2872798,96.2580039 Z" id="Shape"></path>
                <path d="M31.4915068,70.2872798 L0.0701369863,70.2872798 C2.95577299,100.746771 27.3233659,124.793738 57.7828571,128 L57.7828571,96.5786301 C44.3165558,93.6929941 34.0565166,83.432955 31.4915068,70.2872798 L31.4915068,70.2872798 L31.4915068,70.2872798 Z" id="Shape"></path>
            </g>
        </g>
    </g>
</svg>

<svg width="128" height="128" xmlns="http://www.w3.org/2000/svg"><path d="M96.258 57.462h31.421C124.794 27.323 100.426 2.956 70.287.07v31.422a32.856 32.856 0 0 1 25.971 25.97zm-38.796-25.97V.07C27.323 2.956 2.956 27.323.07 57.462h31.422a32.856 32.856 0 0 1 25.97-25.97zm12.825 64.766v31.421c30.46-2.885 54.507-27.253 57.713-57.712H96.579c-2.886 13.466-13.146 23.726-26.292 26.291zM31.492 70.287H.07c2.886 30.46 27.253 54.507 57.713 57.713V96.579c-13.466-2.886-23.726-13.146-26.291-26.292z" fill-rule="evenodd"/></svg>
